img/instagram.svg

<svg fill="none" height="32" viewBox="0 0 32 32" width="32" xmlns="http://www.w3.org/2000/svg"><path d="m15.9998 12.6937c-.654 0-1.2933.1939-1.837.5572-.5438.3634-.9677.8798-1.2179 1.484-.2503.6042-.3158 1.2691-.1882 1.9105.1276.6415.4425 1.2306.905 1.6931.4624.4624 1.0516.7774 1.693.905.6415.1275 1.3063.0621 1.9105-.1882.6043-.2503 1.1207-.6741 1.484-1.2179.3634-.5438.5573-1.1831.5573-1.8371 0-.4342-.0855-.8642-.2517-1.2654s-.4097-.7657-.7168-1.0727c-.307-.3071-.6716-.5507-1.0728-.7168-.4011-.1662-.8311-.2517-1.2654-.2517zm13.24-3.26671c-.007-1.02965-.1966-2.0499-.56-3.01333-.2676-.70499-.6817-1.34521-1.2149-1.87842s-1.1734-.94729-1.8784-1.21491c-.9634-.36339-1.9837-.55299-3.0133-.56-1.72-.09334-2.2267-.09334-6.5734-.09334-4.3466 0-4.8533 0-6.5733.09334-1.02965.00701-2.0499.19661-3.01333.56-.70499.26762-1.34521.6817-1.87842 1.21491s-.94729 1.17343-1.21491 1.87842c-.36338.96343-.55299 1.98368-.56 3.01333-.09334 1.72001-.09334 2.22671-.09334 6.57331 0 4.3467 0 4.8534.09334 6.5734.01435 1.0332.2037 2.0566.56 3.0266.26643.7018.68017 1.3383 1.21333 1.8667.53093.5364 1.17252.9505 1.88 1.2133.96343.3634 1.98368.553 3.01333.56 1.72.0934 2.2267.0934 6.5733.0934 4.3467 0 4.8534 0 6.5734-.0934 1.0296-.007 2.0499-.1966 3.0133-.56.7075-.2628 1.3491-.6769 1.88-1.2133.5332-.5284.9469-1.1649 1.2133-1.8667.3631-.9681.5526-1.9927.56-3.0266.0934-1.72.0934-2.2267.0934-6.5734 0-4.3466 0-4.8533-.0934-6.57331zm-3.3866 10.66671c-.0428.8228-.2184 1.6332-.52 2.4-.2589.6395-.6437 1.2205-1.1316 1.7084-.4878.4879-1.0688.8727-1.7084 1.1316-.774.2847-1.589.4423-2.4134.4666h-8.16c-.8243-.0243-1.6393-.1819-2.4133-.4666-.66119-.2458-1.25829-.6377-1.74666-1.1467-.48311-.4783-.85621-1.0562-1.09334-1.6933-.28592-.7732-.43919-1.5891-.45333-2.4134v-8.16c.01414-.8242.16741-1.6401.45333-2.41331.24571-.66119.6377-1.2583 1.14667-1.74666.48044-.48051 1.05769-.85321 1.69333-1.09334.774-.28479 1.589-.44238 2.4133-.46666h8.16c.8244.02428 1.6394.18187 2.4134.46666.6612.24571 1.2583.6377 1.7466 1.14667.4831.47833.8562 1.05617 1.0934 1.69333.2848.77401.4424 1.58901.4666 2.41331v4.08c0 2.7467.0934 3.0267.0534 4.08zm-2.1334-9.92c-.1587-.43073-.409-.82185-.7336-1.14642-.3246-.32458-.7157-.57487-1.1464-.73362-.5913-.20499-1.2142-.30428-1.84-.29333h-8c-.6289.00614-1.2519.12351-1.84.34666-.42406.15154-.81104.39162-1.13518.70427-.32415.31265-.57804.69072-.74478 1.10904-.19363.5938-.28823 1.2155-.28 1.84v8c.01322.6283.13036 1.25.34666 1.84.15875.4307.40905.8218.73362 1.1464s.7157.5749 1.14638.7336c.5689.2092 1.1675.3263 1.7733.3467h8c.629-.0062 1.2519-.1235 1.84-.3467.4307-.1587.8218-.409 1.1464-.7336s.5749-.7157.7336-1.1464c.2232-.5881.3406-1.211.3467-1.84v-8c.0004-.6296-.1172-1.2537-.3467-1.84zm-7.72 10.92c-.6682 0-1.3299-.1319-1.9471-.388s-1.1778-.6315-1.6497-1.1047c-.4719-.4731-.8458-1.0347-1.1003-1.6525-.2545-.6179-.3846-1.2799-.3829-1.9482 0-1.0079.2991-1.9932.8594-2.8311.5602-.8378 1.3565-1.4907 2.2879-1.8758.9315-.3851 1.9563-.4852 2.9446-.2875.9884.1976 1.8959.684 2.6077 1.3976.7118.7137 1.1958 1.6225 1.3909 2.6114.195.9888.0922 2.0134-.2953 2.9438-.3876.9305-1.0425 1.725-1.8818 2.2831-.8394.558-1.8254.8545-2.8334.8519zm5.3334-9.1867c-.2948-.0312-.5675-.1704-.7658-.3907-.1982-.2203-.3079-.5063-.3079-.8026 0-.2964.1097-.5823.3079-.80267.1983-.22033.471-.35951.7658-.39071.2947.0312.5675.17038.7657.39071.1983.22037.308.50627.308.80267 0 .2963-.1097.5823-.308.8026-.1982.2203-.471.3595-.7657.3907z" fill="#04162c" fill-opacity=".5"/></svg>

<svg width="32" height="32" viewBox="0 0 32 32" fill="none" xmlns="http://www.w3.org/2000/svg">
<path d="M15.9998 12.6937C15.3458 12.6937 14.7065 12.8876 14.1628 13.2509C13.619 13.6143 13.1951 14.1307 12.9449 14.7349C12.6946 15.3391 12.6291 16.004 12.7567 16.6454C12.8843 17.2869 13.1992 17.876 13.6617 18.3385C14.1241 18.8009 14.7133 19.1159 15.3547 19.2435C15.9962 19.371 16.661 19.3056 17.2652 19.0553C17.8695 18.805 18.3859 18.3812 18.7492 17.8374C19.1126 17.2936 19.3065 16.6543 19.3065 16.0003C19.3065 15.5661 19.221 15.1361 19.0548 14.7349C18.8886 14.3337 18.6451 13.9692 18.338 13.6622C18.031 13.3551 17.6664 13.1115 17.2652 12.9454C16.8641 12.7792 16.4341 12.6937 15.9998 12.6937ZM29.2398 9.42699C29.2328 8.39734 29.0432 7.37709 28.6798 6.41366C28.4122 5.70867 27.9981 5.06845 27.4649 4.53524C26.9317 4.00203 26.2915 3.58795 25.5865 3.32033C24.6231 2.95694 23.6028 2.76734 22.5732 2.76033C20.8532 2.66699 20.3465 2.66699 15.9998 2.66699C11.6532 2.66699 11.1465 2.66699 9.4265 2.76033C8.39685 2.76734 7.3766 2.95694 6.41317 3.32033C5.70818 3.58795 5.06796 4.00203 4.53475 4.53524C4.00154 5.06845 3.58746 5.70867 3.31984 6.41366C2.95646 7.37709 2.76685 8.39734 2.75984 9.42699C2.6665 11.147 2.6665 11.6537 2.6665 16.0003C2.6665 20.347 2.6665 20.8537 2.75984 22.5737C2.77419 23.6069 2.96354 24.6303 3.31984 25.6003C3.58627 26.3021 4.00001 26.9386 4.53317 27.467C5.0641 28.0034 5.70569 28.4175 6.41317 28.6803C7.3766 29.0437 8.39685 29.2333 9.4265 29.2403C11.1465 29.3337 11.6532 29.3337 15.9998 29.3337C20.3465 29.3337 20.8532 29.3337 22.5732 29.2403C23.6028 29.2333 24.6231 29.0437 25.5865 28.6803C26.294 28.4175 26.9356 28.0034 27.4665 27.467C27.9997 26.9386 28.4134 26.3021 28.6798 25.6003C29.0429 24.6322 29.2324 23.6076 29.2398 22.5737C29.3332 20.8537 29.3332 20.347 29.3332 16.0003C29.3332 11.6537 29.3332 11.147 29.2398 9.42699ZM25.8532 20.0937C25.8104 20.9165 25.6348 21.7269 25.3332 22.4937C25.0743 23.1332 24.6895 23.7142 24.2016 24.2021C23.7138 24.69 23.1328 25.0748 22.4932 25.3337C21.7192 25.6184 20.9042 25.776 20.0798 25.8003H11.9198C11.0955 25.776 10.2805 25.6184 9.5065 25.3337C8.84531 25.0879 8.24821 24.696 7.75984 24.187C7.27673 23.7087 6.90363 23.1308 6.6665 22.4937C6.38058 21.7205 6.22731 20.9046 6.21317 20.0803V11.9203C6.22731 11.0961 6.38058 10.2802 6.6665 9.50699C6.91221 8.8458 7.3042 8.24869 7.81317 7.76033C8.29361 7.27982 8.87086 6.90712 9.5065 6.66699C10.2805 6.3822 11.0955 6.22461 11.9198 6.20033H20.0798C20.9042 6.22461 21.7192 6.3822 22.4932 6.66699C23.1544 6.9127 23.7515 7.30469 24.2398 7.81366C24.7229 8.29199 25.096 8.86983 25.3332 9.50699C25.618 10.281 25.7756 11.096 25.7998 11.9203V16.0003C25.7998 18.747 25.8932 19.027 25.8532 20.0803V20.0937ZM23.7198 10.1737C23.5611 9.74297 23.3108 9.35185 22.9862 9.02728C22.6616 8.7027 22.2705 8.45241 21.8398 8.29366C21.2485 8.08867 20.6256 7.98938 19.9998 8.00033H11.9998C11.3709 8.00647 10.7479 8.12384 10.1598 8.34699C9.73574 8.49853 9.34876 8.73861 9.02462 9.05126C8.70047 9.36391 8.44658 9.74198 8.27984 10.1603C8.08621 10.7541 7.99161 11.3758 7.99984 12.0003V20.0003C8.01306 20.6286 8.1302 21.2503 8.3465 21.8403C8.50525 22.271 8.75555 22.6621 9.08012 22.9867C9.40469 23.3113 9.79582 23.5616 10.2265 23.7203C10.7954 23.9295 11.394 24.0466 11.9998 24.067H19.9998C20.6288 24.0608 21.2517 23.9435 21.8398 23.7203C22.2705 23.5616 22.6616 23.3113 22.9862 22.9867C23.3108 22.6621 23.5611 22.271 23.7198 21.8403C23.943 21.2522 24.0604 20.6293 24.0665 20.0003V12.0003C24.0669 11.3707 23.9493 10.7466 23.7198 10.1603V10.1737ZM15.9998 21.0937C15.3316 21.0937 14.6699 20.9618 14.0527 20.7057C13.4355 20.4496 12.8749 20.0742 12.403 19.601C11.9311 19.1279 11.5572 18.5663 11.3027 17.9485C11.0482 17.3306 10.9181 16.6686 10.9198 16.0003C10.9198 14.9924 11.2189 14.0071 11.7792 13.1692C12.3394 12.3314 13.1357 11.6785 14.0671 11.2934C14.9986 10.9083 16.0234 10.8082 17.0117 11.0059C18.0001 11.2035 18.9076 11.6899 19.6194 12.4035C20.3312 13.1172 20.8152 14.026 21.0103 15.0149C21.2053 16.0037 21.1025 17.0283 20.715 17.9587C20.3274 18.8892 19.6725 19.6837 18.8332 20.2418C17.9938 20.7998 17.0078 21.0963 15.9998 21.0937ZM21.3332 11.907C21.0384 11.8758 20.7657 11.7366 20.5674 11.5163C20.3692 11.296 20.2595 11.01 20.2595 10.7137C20.2595 10.4173 20.3692 10.1314 20.5674 9.91103C20.7657 9.6907 21.0384 9.55152 21.3332 9.52032C21.6279 9.55152 21.9007 9.6907 22.0989 9.91103C22.2972 10.1314 22.4069 10.4173 22.4069 10.7137C22.4069 11.01 22.2972 11.296 22.0989 11.5163C21.9007 11.7366 21.6279 11.8758 21.3332 11.907Z" fill="#04162C" fill-opacity="0.5"/>
</svg>
